public/assets/images/twitter.svg

<svg width="30" height="30" viewBox="0 0 30 30" fill="none" xmlns="http://www.w3.org/2000/svg">
<circle cx="14.8935" cy="14.8933" r="14.8933" fill="#55ACEE"/>
<path d="M21.9715 11.2633C22.7066 10.8228 23.2707 10.1259 23.537 9.29417C22.8492 9.70223 22.0869 9.99824 21.2764 10.1578C20.627 9.46621 19.7018 9.034 18.6773 9.034C16.7116 9.034 15.1174 10.6282 15.1174 12.5939C15.1174 12.8729 15.149 13.1445 15.21 13.4052C12.2515 13.2568 9.62818 11.8397 7.87225 9.68524C7.56588 10.2109 7.39013 10.8228 7.39013 11.4751C7.39013 12.7099 8.01906 13.8 8.97375 14.4382C8.39048 14.4199 7.84119 14.2598 7.36145 13.9925C7.36119 14.0076 7.36119 14.0228 7.36119 14.0376C7.36119 15.7625 8.5888 17.2012 10.217 17.528C9.91862 17.6097 9.60349 17.653 9.27933 17.653C9.04942 17.653 8.82667 17.631 8.60951 17.5896C9.06243 19.0036 10.3769 20.0328 11.935 20.0618C10.7164 21.0167 9.18163 21.5857 7.51331 21.5857C7.22659 21.5857 6.94252 21.569 6.66455 21.5358C8.23915 22.5462 10.1108 23.1353 12.1211 23.1353C18.6691 23.1353 22.2499 17.7109 22.2499 13.0062C22.2499 12.852 22.2465 12.6982 22.2396 12.5459C22.9357 12.0441 23.5392 11.4173 24.0162 10.7034C23.378 10.9864 22.6915 11.1778 21.9715 11.2633Z" fill="#F1F2F2"/>
</svg>

<svg xmlns="http://www.w3.org/2000/svg" width="30" height="30" fill="none"><circle cx="14.893" cy="14.893" r="14.893" fill="#55ACEE"/><path fill="#F1F2F2" d="M21.971 11.263a3.57 3.57 0 0 0 1.566-1.969 7.126 7.126 0 0 1-2.26.864 3.56 3.56 0 0 0-6.066 3.247 10.105 10.105 0 0 1-7.339-3.72 3.56 3.56 0 0 0 1.102 4.753 3.535 3.535 0 0 1-1.613-.445v.045a3.562 3.562 0 0 0 2.856 3.49 3.55 3.55 0 0 1-1.607.062 3.564 3.564 0 0 0 3.325 2.472 7.143 7.143 0 0 1-5.27 1.474 10.07 10.07 0 0 0 5.456 1.6c6.548 0 10.129-5.425 10.129-10.13 0-.154-.003-.308-.01-.46a7.218 7.218 0 0 0 1.776-1.843 7.103 7.103 0 0 1-2.044.56Z"/></svg>
